X:94
T:Hunter Creek Jig
R:jig
C:Bruce Osborne - Dec. 2002
Z:abc by bosborne@kos.net
M:6/8
L:1/8
K:Emaj
g/a/|bge fec|BcB GFE|BcB GBe|gfe f2 g/a/|\
bge fec|BcB GFE|BcB GBe|def e2:|
|:d/e/|fBB fBB|gee gee|fBB fBd|eBG E2 d/e/|\
fBB fBB|gee gee|fBB fBd|egf e2:|
